X:694
L:1/8
M:4/4
K:G
 G2 FA G2 D2 | B B A B (cB) A2 | B A B c B3/2 A/ G c | B2 A2 G2 z2 ||"^var. 1" G2 A2 G2 D2 | 
 G F G A G2 D2 | c B A B c B A z | c B A G F E D3/2 c/ | B2 A2 G2 z2 ||"^var. 2" A2 A2 A2 D2 | 
 A A G G A2 D2 | E2 G2 F F E E | D4 z4 |][M:2/4][K:Bb] dd dd | cc A2 | dd dd | cc A2 | dd dd | 
 cc A2 | G3/2 G/ AA | d d3 | c3/2 c/ cA | B2 !fermata!G2 | z2 z G | G^F GA | B2 AG | G^F GA | 
 B2 AG | G^F GA | B2 A z | dd dd | cc A2 | dd dd | ee A2 | dd dd | cc A2 | G3/2 G/ AA | d d3 | 
 c3/2 c/ cA | B2 !fermata!G2 |][M:3/4][K:G] D2 | G4 B2 | B4 d2 | dc B2 A2 |[M:2/4] A3 G/F/ | 
 E2 F2 |[M:3/4] (G6 | G2) D2 | G4 B2 | B4 d2 | (dc) B2 A2 |[M:2/4] A3 G/F/ | E2 F2 |[M:3/4] (G6 | 
 G2) z2 d2 | d6 | B2 e2 e2 | e2 d z d2 | d4 B2 | d4 c3/2 B/ |{B} (A6 | A2) z2 D2 | B4 d2 | 
 (dc) B2 A2 |[M:2/4] A3 G/F/ | E2 F2 |[M:3/4] (G6 | G2) z2 |]

